X: 19811
T: Jerrey Yn Theihll
R: reel
M: 4/4
K: Bminor
Bcde f2df|ecce dcBA|Bcde f2df|efde c2dc|
Bcde f2df|ecce dcBA|Bcde f2df|efde c2Bc|
dB B/B/B GBFB|dB B/B/B GBFB|dfed cdec|dBBA B2 Bc|
dB B/B/B GBFB|dB B/B/B GBFB|dfed cdec|dBBA B2 BA||

